X: 10067
T: Dick's Maggot
R: three-two
M: 3/2
K: Gmajor
|:g2d2- d2B2- B2A2|Bcd2 ABc2 B4|g2d2- d2B2- B2A2|Bcd2 G2F2 G4:|
f2a2- a2f2- f2d2|gab2 efg2 f4|f2a2- a2f2- f2d2|def2 AB^c2 d4|
Bcd2 Bcd2 e4|efg2 efg2 f4|g2d2- d2B2- B2c2|A4- A2G2 G4||

